X:1
T:A Life in a Prairie SAhack
M:6/8
L:1/8
K:D
 A,/2A,/2| A,A,A, D2 E| F3- F2 F/2F/2| F2 F G2 F| E3- E2 E| A,2 CE E3/2 F/2|\
 G3- G2 A| B2 A A- E3/2 ^E/2| F3- F2 F| A,A,A, DDE| F3- F2 F| F2 F G2 F|\
 z2 G| G2 G GGG| G3- G2 A/2A/2| c3/2 B/2 A GFE| D6| A3- F3| A3- F2 A|\
 AAA BAF| G3- G2 G| G2 G GGG| G3- G2 A/2A/2| c3/2 B/2 A GFE| D3- D2||\


